svgs/light/files.svg

<svg xmlns="http://www.w3.org/2000/svg" viewBox="0 0 448 512"><!-- Font Awesome Pro 6.0.0-alpha2 by @fontawesome - https://fontawesome.com License - https://fontawesome.com/license (Commercial License) --><path d="M336 480H96C60.654 480 32 451.346 32 416V112C32 103.164 24.836 96 16 96S0 103.164 0 112V416C0 469.02 42.98 512 96 512H336C344.836 512 352 504.836 352 496S344.836 480 336 480ZM429.256 113.252L334.746 18.744C322.742 6.742 306.465 0 289.49 0H160C124.654 0 96 28.654 96 64V352C96 387.346 124.654 416 160 416H384C419.348 416 448 387.346 448 352V158.508C448 141.533 441.258 125.256 429.256 113.252ZM320 49.252L398.75 128H336C327.172 128 320 120.828 320 112V49.252ZM416 352C416 369.645 401.645 384 384 384H160C142.355 384 128 369.645 128 352V64C128 46.355 142.355 32 160 32H288V112C288 138.469 309.531 160 336 160H416V352Z"/></svg>

<svg xmlns="http://www.w3.org/2000/svg" viewBox="0 0 448 512"><!--! Font Awesome Pro 6.3.0 by @fontawesome - https://fontawesome.com License - https://fontawesome.com/license (Commercial License) Copyright 2023 Fonticons, Inc. --><path d="M336 480H96c-35.35 0-64-28.65-64-64V112C32 103.2 24.84 96 16 96S0 103.2 0 112V416c0 53.02 42.98 96 96 96h240c8.836 0 16-7.164 16-16S344.8 480 336 480zM429.3 113.3l-94.51-94.51C322.7 6.742 306.5 0 289.5 0H160C124.7 0 96 28.65 96 64l.0098 288c0 35.35 28.65 64 64 64h224C419.4 416 448 387.3 448 352V158.5C448 141.5 441.3 125.3 429.3 113.3zM320 49.25L398.8 128H336C327.2 128 320 120.8 320 112V49.25zM416 352c0 17.64-14.36 32-32 32H160c-17.64 0-32-14.36-32-32V64c0-17.64 14.36-32 32-32h128v80C288 138.5 309.5 160 336 160H416V352z"/></svg>
